X: 1
T: Bank of Ireland 
M: 4/4
L: 1/8
R: Reel
K: DMix
ed|c2 AB cABG|EGDG EGAB|c2 AB cABG|Add^c dfed|
c2 AB cABG|EGDG EGAB|c2AB cABG|Add^c d2 ||
K: D
e2|f2 df e3 c|dfed cAAg|fedf e2 fg|afge d2 cd|
eaag egfe|dfed cAGB|Addc defg|af (3gfe d2 ||
